X:33
T:King Of The Fairies
M:4/4
L:1/8
R:hornpipe
K:Edor
|:B,2|EDEF GFGA|BABA GFGA|B2E2 EFGE|FGFE D2B,2|
|EDEF GFGA|BAGB d3=c|B2E2 GFED|E6 :|
|:d2|e2e2 Bdef|gagf e3f|e2B2 BABc|dedc BcdB|
|e2B2 Bdef|gagf efed|Bdeg fedf|e6 ef|
|g3e f3d|edBc d3e|dBAF GABc|dBAF GFED|
|B,2E2 EFGA|B2e2 edef|e2B2 BAGF|E6:|
